X:1
T:Benedictus - Guidetti
T:#
%%score 1 2 3
L:1/8
Q:1/4=480
M:none
K:C
V:1 treble nm="Soprano" snm="S"
V:2 alto nm="Alto" snm="A"
V:3 tenor nm="Tenor" snm="T"
V:1
"^Benedictus""^Giovanni Guidetti\n (1532-1592)" ^F8 F8 F8 F8 F8 F8 F8 | %1
w: Be- ne- di- ctus Do- mi- nus|
 G8 ^F8 G8 F8[Q:1/4=240] F8 ||[Q:1/4=480] F8 F8 F8 F8 F8 F8 | F8 F8 F8 F8 F8 F8 F8 F8 | %4
w: De- us Is- ra- el,|qui- a vi- si- ta- vit|et fe- cit re- dem- pti- o- nem|
[Q:1/4=240] E8 D8 | (E2 F2 G6 F2 F4- | F2 E2 E6 D2 D4- | D4 ^C4) D16 |][K:F] F8 F8 F8 F8 F8 F8 F8 | %9
w: ple- bis|su\- * * * *||* * ae.|Be- ne- di- ctus Do- mi- nus|
 F8 E8 F8 D8[Q:1/4=240] D8 ||[Q:1/4=480] F8 F8 F8 F8 F8 F8 | F8 F8 F8 F8 F8 F8 F8 F8 | %12
w: De- us Is- ra- el,|qui- a vi- si- ta- vit|et fe- cit re- dem- pti- o- nem|
[Q:1/4=240] F8 E8 | (F12 E2 D2 | E8) F16 |] A8 A8 A8 A8 A8 A8 A8 A8 A8 |[Q:1/4=240] B16 | A16 | %18
w: ple- bis|su\- * *|* ae.|Be- ne- di- ctus Do- mi- nus De- us|Is-|ra-|
 G16 || G8 G8 G8 G8 G8 G8 G8 G8 G8 G8 G8 G8 G8 G8 ||[Q:1/4=240] A8 A8 | G16 | A16 |] %23
w: el,|qui- a vi- si- ta- vit, et fe- cit re- dem- pti- o- nem|ple- bis|su-|ae.|
V:2
 D8 D8 D8 D8 D8 D8 D8 | D8 D8 D8 D8 D8 || C8 C8 C8 C8 C8 C8 | C8 C8 C8 C8 C8 C8 C8 C8 | C8 A,8 | %5
w: Be- ne- di- ctus Do- mi- nus|De- us Is- ra- el,|qui- a vi- si- ta- vit|et fe- cit re- dem- pti- o- nem|ple- bis|
 (C16- | C8 A,8- | A,8) A,16 |][K:F] C8 C8 C8 C8 C8 C8 C8 | C8 C8 C8 B,8 B,8 || C8 C8 C8 C8 C8 C8 | %11
w: su\-||* ae.|Be- ne- di- ctus Do- mi- nus|De- us Is- ra- el,|qui- a vi- si- ta- vit|
 C8 C8 C8 C8 C8 C8 C8 C8 | B,8 C8 | C16- | C8 C16 |] F8 F8 F8 F8 F8 F8 F8 F8 F8 | (F8 G8) | %17
w: et fe- cit re- dem- pti- o- nem|ple- bis|su\-|* ae.|Be- ne- di- ctus Do- mi- nus De- us|Is\- *|
 (E8 F8- | F4 E2 D2) E8 || E8 E8 E8 E8 E8 E8 E8 E8 E8 E8 E8 E8 E8 E8 || F8 F4 (F4- | F4 E2 D2 E8) | %22
w: ra\- *|* * * el,|qui- a vi- si- ta- vit, et fe- cit re- dem- pti- o- nem|ple- bis su\-||
 F16 |] %23
w: ae.|
V:3
 A,8 A,8 A,8 A,8 A,8 A,8 A,8 | B,8 A,8 G,8 A,8 A,8 || A,8 A,8 A,8 A,8 A,8 A,8 | %3
w: Be- ne- di- ctus Do- mi- nus|De- us Is- ra- el,|qui- a vi- si- ta- vit|
 A,8 A,8 A,8 A,8 A,8 A,8 A,8 A,8 | G,8 F,8 | (G,8 A,8 | G,8 F,8 | E,8) D,16 |] %8
w: et fe- cit re- dem- pti- o- nem|ple- bis|su\- *||* ae.|
[K:F] A,8 A,8 A,8 A,8 A,8 A,8 A,8 | A,8 G,8 A,8 F,8 F,8 || A,8 A,8 A,8 A,8 A,8 A,8 | %11
w: Be- ne- di- ctus Do- mi- nus|De- us Is- ra- el,|qui- a vi- si- ta- vit|
 A,8 A,8 A,8 A,8 A,8 A,8 A,8 A,8 | F,8 G,8 | (A,8 G,8- | G,8) F,16 |] C8 C8 C8 C8 C8 C8 C8 C8 C8 | %16
w: et fe- cit re- dem- pti- o- nem|ple- bis|su\- *|* ae.|Be- ne- di- ctus Do- mi- nus De- us|
 D16 | C16 | C16 || C8 C8 C8 C8 C8 C8 C8 C8 C8 C8 C8 C8 C8 C8 || C8 C8 | C16 | C16 |] %23
w: Is-|ra-|el,|qui- a vi- si- ta- vit, et fe- cit re- dem- pti- o- nem|ple- bis|su-|ae.|

